X:21148 
T:O'DONOVAN'S HORNPIPE 
B:DMI.0893
Z:Nordberg/Black
R:hornpipe
%Q:1/4=150
M:C
L:1/8
K:D
P:simplified version
DF|GFGB AFDc|dcdf ecAf|gfeg f2df|e2dB A2GE|
GFGB AFDc|dcdf ecAg|f2df g2ec|dfec d2:|
Ac|dcdf afdf|afbf afdf|g2eg f2df|e2dB A2GE|
GFGB AFDc|dcdf ecAg|f2df g2ec|dfec d2:|


%%vskip
P:Source version
(3DEF|GFGB AFDc|dcdf ecAf|gfeg (3faf df|(3efe (3dcB (3ABA (3GFE|
GFGB AFDc|dcdf ecAg|(3faf df (3gbg ec|df (3edc d2:|
Ac|dcdf afdf|afbf afdf|(3gbg eg (3faf df|(3efe (3dcB (3ABA (3GFE|
GFGB AFDc|dcdf ecAg|(3faf df (3gbg ec|df (3edc d2:|

%%%

